lib/flags/ni-nicaragua.svg

<svg xmlns="http://www.w3.org/2000/svg" fill="none" aria-hidden="true" viewBox="0 0 42 30"><g id="Country=NI - Nicaragua, Size=sm (36x24)" filter="url(#filter0_dd_91_26136)"><g clip-path="url(#clip0_91_26136)"><g id="flag"><mask id="mask0_91_26136" width="36" height="24" x="3" y="2" maskUnits="userSpaceOnUse" style="mask-type:alpha"><rect id="mask" width="36" height="24" x="3" y="2" fill="white"/></mask><g mask="url(#mask0_91_26136)"><g id="contents"><path id="background" fill="#F7FCFF" fill-rule="evenodd" d="M3 2V26H39V2H3Z" clip-rule="evenodd"/><mask id="mask1_91_26136" width="36" height="24" x="3" y="2" maskUnits="userSpaceOnUse" style="mask-type:alpha"><path id="background_2" fill="white" fill-rule="evenodd" d="M3 2V26H39V2H3Z" clip-rule="evenodd"/></mask><g mask="url(#mask1_91_26136)"><path id="top" fill="#0080EC" fill-rule="evenodd" d="M3 2V10H39V2H3Z" clip-rule="evenodd"/><path id="bottom" fill="#0080EC" fill-rule="evenodd" d="M3 18V26H39V18H3Z" clip-rule="evenodd"/><g id="mark"><path id="Oval 36" fill="#D0AB00" fill-rule="evenodd" d="M21 10C21.212 10 21.4206 10.013 21.6248 10.0382L21.4019 11.3143C21.2704 11.2989 21.1362 11.2909 21 11.2909C20.8018 11.2909 20.6081 11.3077 20.4205 11.3398L20.3163 10.0459C20.5393 10.0157 20.7676 10 21 10ZM22.2961 10.1684L21.9051 11.4124C23.1463 11.7551 24.0477 12.784 24.0477 14C24.0477 14.0299 24.0472 14.0597 24.0461 14.0893L25.4946 14.1985C25.4982 14.1327 25.5 14.0666 25.5 14C25.5 12.1914 24.1496 10.6631 22.2961 10.1684ZM24.9526 15.9136C24.2395 17.075 22.8974 17.8874 21.3333 17.9892V16.6931C22.1666 16.6125 22.899 16.2334 23.3924 15.6786L24.9526 15.9136ZM17.1489 16.0704C17.8959 17.1658 19.2177 17.9171 20.7425 17.9936V16.6996C19.8538 16.6335 19.0736 16.2285 18.5658 15.6304L17.1489 16.0704ZM16.5041 14.1715C16.5014 14.1146 16.5 14.0575 16.5 14C16.5 12.3016 17.6909 10.8504 19.3709 10.2702L19.7465 11.5299C18.6947 11.9523 17.9609 12.8899 17.9523 13.9807L16.5041 14.1715Z" clip-rule="evenodd"/><g id="triangle"><path id="Path 180" fill="#7CDFFF" fill-rule="evenodd" d="M20.9716 10.9497L17.8926 15.6805H24.0989L20.9716 10.9497Z" clip-rule="evenodd"/><mask id="mask2_91_26136" width="8" height="6" x="17" y="10" maskUnits="userSpaceOnUse" style="mask-type:alpha"><path id="Path 180_2" fill="white" fill-rule="evenodd" d="M20.9716 10.9497L17.8926 15.6805H24.0989L20.9716 10.9497Z" clip-rule="evenodd"/></mask><g mask="url(#mask2_91_26136)"><g id="Oval 35"><path stroke="#E31D1C" d="M20.9998 17.1182C22.3938 17.1182 23.6271 16.1015 23.6271 14.7273C23.6271 13.3531 22.3938 12.3364 20.9998 12.3364C19.6058 12.3364 18.3726 13.3531 18.3726 14.7273C18.3726 16.1015 19.6058 17.1182 20.9998 17.1182Z"/><path stroke="#FFD018" d="M20.9998 17.1182C22.3938 17.1182 23.6271 16.1015 23.6271 14.7273C23.6271 13.3531 22.3938 12.3364 20.9998 12.3364C19.6058 12.3364 18.3726 13.3531 18.3726 14.7273C18.3726 16.1015 19.6058 17.1182 20.9998 17.1182Z"/><path stroke="#4EDD00" d="M20.9998 17.1182C22.3938 17.1182 23.6271 16.1015 23.6271 14.7273C23.6271 13.3531 22.3938 12.3364 20.9998 12.3364C19.6058 12.3364 18.3726 13.3531 18.3726 14.7273C18.3726 16.1015 19.6058 17.1182 20.9998 17.1182Z"/><path stroke="#3D58DB" d="M20.9998 17.1182C22.3938 17.1182 23.6271 16.1015 23.6271 14.7273C23.6271 13.3531 22.3938 12.3364 20.9998 12.3364C19.6058 12.3364 18.3726 13.3531 18.3726 14.7273C18.3726 16.1015 19.6058 17.1182 20.9998 17.1182Z"/></g><rect id="Rectangle 47" width="7.03636" height="1.81818" x="17.6455" y="14.2183" fill="#3D58DB"/><path id="Path 181" fill="#97C923" fill-rule="evenodd" d="M18.1162 14.9909L19.5186 13.7513L19.949 14.3711L20.2497 13.6152L20.5836 14.1818L20.9344 13.7513L21.3882 14.1818L21.8042 13.6152L22.1599 14.1818L22.568 13.7513L23.5215 14.652L23.6931 14.9909L18.1162 15.2424V14.9909Z" clip-rule="evenodd"/></g></g></g></g></g></g></g></g></g><defs><filter id="filter0_dd_91_26136" width="42" height="30" x="0" y="0" color-interpolation-filters="sRGB" filterUnits="userSpaceOnUse"><feFlood flood-opacity="0" result="BackgroundImageFix"/><feColorMatrix in="SourceAlpha" result="hardAlpha" values="0 0 0 0 0 0 0 0 0 0 0 0 0 0 0 0 0 0 127 0"/><feOffset dy="1"/><feGaussianBlur stdDeviation="1"/><feColorMatrix values="0 0 0 0 0.0627451 0 0 0 0 0.0941176 0 0 0 0 0.156863 0 0 0 0.06 0"/><feBlend in2="BackgroundImageFix" result="effect1_dropShadow_91_26136"/><feColorMatrix in="SourceAlpha" result="hardAlpha" values="0 0 0 0 0 0 0 0 0 0 0 0 0 0 0 0 0 0 127 0"/><feOffset dy="1"/><feGaussianBlur stdDeviation="1.5"/><feColorMatrix values="0 0 0 0 0.0627451 0 0 0 0 0.0941176 0 0 0 0 0.156863 0 0 0 0.1 0"/><feBlend in2="effect1_dropShadow_91_26136" result="effect2_dropShadow_91_26136"/><feBlend in="SourceGraphic" in2="effect2_dropShadow_91_26136" result="shape"/></filter><clipPath id="clip0_91_26136"><rect width="36" height="24" x="3" y="2" fill="white" rx="2"/></clipPath></defs></svg>

<svg xmlns="http://www.w3.org/2000/svg" fill="none" aria-hidden="true" viewBox="0 0 42 30"><g filter="url(#a)"><g clip-path="url(#b)"><mask id="c" width="36" height="24" x="3" y="2" maskUnits="userSpaceOnUse" style="mask-type:alpha"><path fill="#fff" d="M3 2h36v24H3z"/></mask><g mask="url(#c)"><path fill="#F7FCFF" fill-rule="evenodd" d="M3 2v24h36V2H3Z" clip-rule="evenodd"/><mask id="d" width="36" height="24" x="3" y="2" maskUnits="userSpaceOnUse" style="mask-type:alpha"><path fill="#fff" fill-rule="evenodd" d="M3 2v24h36V2H3Z" clip-rule="evenodd"/></mask><g mask="url(#d)"><path fill="#0080EC" fill-rule="evenodd" d="M3 2v8h36V2H3Zm0 16v8h36v-8H3Z" clip-rule="evenodd"/><path fill="#D0AB00" fill-rule="evenodd" d="M21 10c.212 0 .42.013.625.038l-.223 1.276a3.455 3.455 0 0 0-.982.026l-.104-1.294c.223-.03.452-.046.684-.046Zm1.296.168-.39 1.244c1.24.343 2.142 1.372 2.142 2.588 0 .03 0 .06-.002.09l1.449.108c.003-.065.005-.131.005-.198 0-1.809-1.35-3.337-3.204-3.832Zm2.657 5.746c-.713 1.161-2.056 1.973-3.62 2.075v-1.296c.834-.08 1.566-.46 2.06-1.014l1.56.235Zm-7.804.156c.747 1.096 2.069 1.847 3.593 1.924V16.7c-.888-.066-1.668-.471-2.176-1.07l-1.417.44Zm-.645-1.899A3.616 3.616 0 0 1 16.5 14c0-1.698 1.19-3.15 2.87-3.73l.377 1.26c-1.052.422-1.786 1.36-1.795 2.45l-1.448.191Z" clip-rule="evenodd"/><path fill="#7CDFFF" fill-rule="evenodd" d="m20.972 10.95-3.08 4.73H24.1l-3.127-4.73Z" clip-rule="evenodd"/><mask id="e" width="8" height="6" x="17" y="10" maskUnits="userSpaceOnUse" style="mask-type:alpha"><path fill="#fff" fill-rule="evenodd" d="m20.972 10.95-3.08 4.73H24.1l-3.127-4.73Z" clip-rule="evenodd"/></mask><g mask="url(#e)"><path stroke="#E31D1C" d="M21 17.118c1.394 0 2.627-1.016 2.627-2.39 0-1.375-1.233-2.392-2.627-2.392-1.394 0-2.627 1.017-2.627 2.391 0 1.375 1.233 2.391 2.627 2.391Z"/><path stroke="#FFD018" d="M21 17.118c1.394 0 2.627-1.016 2.627-2.39 0-1.375-1.233-2.392-2.627-2.392-1.394 0-2.627 1.017-2.627 2.391 0 1.375 1.233 2.391 2.627 2.391Z"/><path stroke="#4EDD00" d="M21 17.118c1.394 0 2.627-1.016 2.627-2.39 0-1.375-1.233-2.392-2.627-2.392-1.394 0-2.627 1.017-2.627 2.391 0 1.375 1.233 2.391 2.627 2.391Z"/><path stroke="#3D58DB" d="M21 17.118c1.394 0 2.627-1.016 2.627-2.39 0-1.375-1.233-2.392-2.627-2.392-1.394 0-2.627 1.017-2.627 2.391 0 1.375 1.233 2.391 2.627 2.391Z"/><path fill="#3D58DB" d="M17.645 14.218h7.036v1.818h-7.036z"/><path fill="#97C923" fill-rule="evenodd" d="m18.116 14.99 1.403-1.239.43.62.3-.756.335.567.35-.43.454.43.416-.567.356.567.408-.43.953.9.172.339-5.577.251v-.251Z" clip-rule="evenodd"/></g></g></g></g></g><defs><clipPath id="b"><rect width="36" height="24" x="3" y="2" fill="#fff" rx="2"/></clipPath><filter id="a" width="42" height="30" x="0" y="0" color-interpolation-filters="sRGB" filterUnits="userSpaceOnUse"><feFlood flood-opacity="0" result="BackgroundImageFix"/><feColorMatrix in="SourceAlpha" result="hardAlpha" values="0 0 0 0 0 0 0 0 0 0 0 0 0 0 0 0 0 0 127 0"/><feOffset dy="1"/><feGaussianBlur stdDeviation="1"/><feColorMatrix values="0 0 0 0 0.0627451 0 0 0 0 0.0941176 0 0 0 0 0.156863 0 0 0 0.06 0"/><feBlend in2="BackgroundImageFix" result="effect1_dropShadow_91_26136"/><feColorMatrix in="SourceAlpha" result="hardAlpha" values="0 0 0 0 0 0 0 0 0 0 0 0 0 0 0 0 0 0 127 0"/><feOffset dy="1"/><feGaussianBlur stdDeviation="1.5"/><feColorMatrix values="0 0 0 0 0.0627451 0 0 0 0 0.0941176 0 0 0 0 0.156863 0 0 0 0.1 0"/><feBlend in2="effect1_dropShadow_91_26136" result="effect2_dropShadow_91_26136"/><feBlend in="SourceGraphic" in2="effect2_dropShadow_91_26136" result="shape"/></filter></defs></svg>
